X:1
T:Christ ist erstanden
T:Thomas Stoltzer
T:Source : DDT 34---Leipzig---Breitkopf & Härtel---J.Wolf---1908. First print : Newe Deudsche Geistliche Gesenge---Wittemberg---G.Rhau---1544. Editor : André Vierendeels (08/08/17).
T:Notes : Original clefs : C1, C4, C4, F4 Original note values have been halved Editorial accidentals above the staff
T:Christ ist erstanden
T:©
T:©
T:©
C:Thomas Stoltzer
Z:©
%%score [ 1 [ 2 3 ] 4 ]
L:1/8
Q:1/4=120
M:2/2
K:C
V:1 treble nm="Alto" snm="A"
V:2 treble-8 nm="Tenor 1" snm="T 1"
V:3 treble-8 nm="Tenor 2" snm="T 2"
V:4 bass nm="Bass" snm="B"
V:1
 z8 | z8 | z8 | z8 | A8 | G4 A4 | c4 d4 | A8 | z8 | A4 G2 G2 | A4 F4 | E4 F4 | D4 z2 C2 | %13
w: ||||Christ|ist er-|stan- *|den||von se- *|ner Mar-|ter al-|le. Des|
 D2 F4 ED | E3 F GA B2 | A2 G4 F2 | G6 FE | F4 E4 | D8 | C4 D4 | E4 F4 | G8 | z4 D4 | G2 G2 E4 | %24
w: sol- * len _|wir _ _ _ _|al- * le|froh _ _|_ _||||sein,|des|sol- len wir|
 D4 C4 | F4 G4 | A4 z4 | z4 A4 | G4 A4 | F4 E4 | F4 D4 | C4 F2 ED | C2 D4 C2 | D2 F4 ED | E8 | z8 | %36
w: al- le|froh _|sein,|Christ|will un-|ser Trost|_ sein,|Christ will _ _|_ un- ser|Trost _ _ _|sein.||
 z8 | C4 A,4 | B,3 C D2 E2- | ED D4 C2 | D8 |] %41
w: |Ky- ri-|e, _ _ e-|* * lei- *|son.|
V:2
 A8 | G4 A4 | c4 d4 | A8 | z2 A4 GF | E2 e3 d c2- | c2 BA B4 | c4 A4 | z4 e4 | d2 d2 e3 d | %10
w: Christ|ist er-|stan- *|den,|Christ ist _|er- stan- * *||* den|von|sei- ner Mar- *|
 cB A4 d2- | d2 c2 d4 | A4 z4 | z2 A2 d2 d2 | c4 B2 d2 | c3 B A4 | G3 A B2 c2- | c2 B2 c4 | A4 D4 | %19
w: |* ter al-|le.|Des sol- len|wir al- le|froh _ _|sein, _ _ _|_ _ des|sol- len|
 E2 A2 B2 d2 | c3 B A4 | G4 z4 | e4 d4 | e4 c4 | B4 c4 | A4 z4 | z8 | e4 d4 | e4 c4 | B4 c4 | %30
w: Wir _ al- le|Groh- * *|sein,|Christ will|un- ser|Trost _|sein,||Cheist will|un- ser|Trost _|
 A4 D4 | E4 A4- | A8 | z2 F3 GAB | c6 BA | BA d4 c2 | d8 | z4 z2 d2- | dcBA d2 c2- |"^b" c2 B2 A4 | %40
w: sein. _|_ _||Ky- * * *|ri- e, _|e- * lei- *|son,|Ky-|* * * * ri- e,|_ e- lei-|
 A8 |] %41
w: son.|
V:3
 z8 | z8 | z8 | z8 | z8 | z4 A4- | A4 G4 | A4 c4 | d4 A4 | z8 | z4 A4 | G4 A4 | F4 E4 | F4 D4 | %14
w: |||||Christ|_ ist|er stan-|* den||von|der Mar-|ter al-|* le.|
 z8 | z4 D4 | G2 G2 E4 | D4 C4 | F4 G4 | A4 z4 | z8 | z4 G4 | A6 GF | E8 | z4 e4 | d4 e4 | c4 B4 | %27
w: |Des|sol- len wir|al- le|froh _|sein,||froh-||sein,|Christ|will un-|ser Trost|
 c4 A4 | z8 | z8 | A4 G4 | A4 F4 | E3 D E4 | D8 | z8 | z8 | F4 D4 | E4 F4 | G4 D2 G2- | G2 F2 E4 | %40
w: _ sein,|||Christ will|un- ser|Trost _ _|sein.|||Ky- *|ri- *|* e, e-|* * lei-|
 D8 |] %41
w: son.|
V:4
 z8 | z4 A,,4- | A,,4 G,,4 | A,,4 C,4 | D,4 A,,4 | z8 | z8 | z4 A,4 | G,2 G,2 A,4 | F,4 E,4 | %10
w: |Christ|_ ist|er- stan-|* den,|||von|sei- ner Mar-|ter al-|
 F,3 G, A,2 D,2 | E,4 D,4 | z4 A,,4 |"^b" D,2 D,2 B,,4 | A,,4 G,,4 | C,4 D,4 | E,8 | z4 A,,4 | %18
w: |* le.|Des|sol- len wir|al- le|Froh _|sein,|des|
 D,2 D,2 B,,4 | A,,4 G,,4 | C,4 D,4 | E,4 E,4 | A,,4 D,4 | C,3 D, E,3 F, | G,4 A,4 | F,4 E,4 | %26
w: sol- len wir|al- le|Froh- *|* sein,|Christ will|un- * ser _|_ trost|_ sein,|
 A,4 G,4 | A,4 F,4 | E,4 F,4 | D,4 C,4 | D,4 B,,4 | A,,8- | A,,8 | A,8 | z2 A,4 G,F, | %35
w: Christ wil|un- ser|Trost _|_ _||||sein.|Ky- * *|
"^#" G,F,E,D, E,4 | D,6 C,B,, | A,,4 D,4 | G,,3 A,, B,,2 C,2- | C,2 D,2 A,,4 | D,8 |] %41
w: * * * * ri-||* e,|e- * * *|* * lei-|son|

